invoice-text-remove-outline.svg

<svg fill="currentColor" viewBox="0 0 24 24"><path d="m12 20 1.3.86c-.2-.58-.3-1.21-.3-1.86 0-.24 0-.5.04-.71L12 17.6l-3 2-3-2-1 .66V5h14v8c.7 0 1.37.12 2 .34V3H3v19l3-2 3 2zm5-11V7H7v2zm-2 4v-2H7v2zm4 4.6-2.1-2.1-1.4 1.4 2.1 2.1-2.1 2.1 1.4 1.4 2.1-2.1 2.1 2.1 1.4-1.4-2.1-2.1 2.1-2.1-1.4-1.4z"/></svg>

<svg  viewBox="0 0 24 24" fill="currentColor"><path  d="M12 20L13.3 20.86C13.1 20.28 13 19.65 13 19C13 18.76 13 18.5 13.04 18.29L12 17.6L9 19.6L6 17.6L5 18.26V5H19V13C19.7 13 20.37 13.12 21 13.34V3H3V22L6 20L9 22L12 20M17 9V7H7V9H17M15 13V11H7V13H15M19 17.6L16.9 15.5L15.5 16.9L17.6 19L15.5 21.1L16.9 22.5L19 20.4L21.1 22.5L22.5 21.1L20.4 19L22.5 16.9L21.1 15.5L19 17.6Z"/></svg>
